X: 1
T: Fourpence, Halfpenny, Farthing
T: The Jockey
M: 6/8
L: 1/8
B: The Round Band Book of Playford
F: http://www.cam.ac.uk/societies/round/dances/rbbop/part1.abc 2006-02-07 18:33:46 UT
K: Bb
|: "Gm"  B2d     dBd |  "F"   A2c     cAc | "Gm"B2d    "Bb"dBd    |  "F"f3 "Gm"b3 \
|  "Bb"  B2d     dBd |  "F"   A2c     cAF | "Gm"G{A}BG  "F"A{B}cA | "Eb"G3 "Bb"B3 :|
|: "F"{c}f2g "Bb"fdB | "Gm"{d}b2g "Bb"fdB | "Eb"e2g    "Bb"fdB    |  "F"A3     c3 \
|  "Bb"  D2F     FDF | "Gm"   B2d  "F"cAF | "Eb"G{A}BG  "F"A{B}cA | "Eb"G3 "Bb"B3 :|
